lib/flags/m/PY.svg

<svg xmlns="http://www.w3.org/2000/svg" fill="none" viewBox="0 0 20 15"><mask id="PY_svg__a" width="20" height="15" x="0" y="0" mask-type="alpha" maskUnits="userSpaceOnUse"><path fill="#fff" d="M0 0H20V15H0z"/></mask><g mask="url(#PY_svg__a)"><path fill="#F7FCFF" fill-rule="evenodd" d="M0 0V15H20V0H0Z" clip-rule="evenodd"/><mask id="PY_svg__b" width="20" height="15" x="0" y="0" mask-type="alpha" maskUnits="userSpaceOnUse"><path fill="#fff" fill-rule="evenodd" d="M0 0V15H20V0H0Z" clip-rule="evenodd"/></mask><g mask="url(#PY_svg__b)"><path stroke="#272727" stroke-width=".625" d="M12.1875 7.5C12.1875 8.70812 11.2081 9.6875 10 9.6875C8.79188 9.6875 7.8125 8.70812 7.8125 7.5C7.8125 6.29188 8.79188 5.3125 10 5.3125C11.2081 5.3125 12.1875 6.29188 12.1875 7.5Z"/><path fill="#F05234" fill-rule="evenodd" d="M0 0V5H20V0H0Z" clip-rule="evenodd"/><path fill="#3D58DB" fill-rule="evenodd" d="M0 10V15H20V10H0Z" clip-rule="evenodd"/><path stroke="#73BE4A" stroke-width=".625" d="M9.17375 6.35999C9.17375 6.35999 8.46987 6.84728 8.72306 7.79217C8.97624 8.73705 9.96305 8.77133 9.96305 8.77133"/><path stroke="#73BE4A" stroke-width=".625" d="M10.7298 6.35999C10.7298 6.35999 11.4336 6.84728 11.1804 7.79217C10.9273 8.73705 9.94046 8.77133 9.94046 8.77133"/><path fill="#FBCD17" fill-rule="evenodd" d="M10.0015 7.96704C10.3467 7.96704 10.6265 7.68722 10.6265 7.34204C10.6265 6.99686 10.3467 6.71704 10.0015 6.71704C9.65635 6.71704 9.37653 6.99686 9.37653 7.34204C9.37653 7.68722 9.65635 7.96704 10.0015 7.96704Z" clip-rule="evenodd"/></g></g></svg>

<svg xmlns="http://www.w3.org/2000/svg" fill="none" viewBox="0 0 20 15"><mask id="PY_svg__a" width="20" height="15" x="0" y="0" maskUnits="userSpaceOnUse"><path fill="#fff" d="M0 0h20v15H0z"/></mask><g mask="url(#PY_svg__a)"><path fill="#F7FCFF" fill-rule="evenodd" d="M0 0v15h20V0H0z" clip-rule="evenodd"/><mask id="PY_svg__b" width="20" height="15" x="0" y="0" maskUnits="userSpaceOnUse"><path fill="#fff" fill-rule="evenodd" d="M0 0v15h20V0H0z" clip-rule="evenodd"/></mask><g mask="url(#PY_svg__b)"><path stroke="#272727" stroke-width=".625" d="M12.188 7.5a2.188 2.188 0 11-4.376 0 2.188 2.188 0 014.375 0z"/><path fill="#F05234" fill-rule="evenodd" d="M0 0v5h20V0H0z" clip-rule="evenodd"/><path fill="#3D58DB" fill-rule="evenodd" d="M0 10v5h20v-5H0z" clip-rule="evenodd"/><path stroke="#73BE4A" stroke-width=".625" d="M9.174 6.36s-.704.487-.45 1.432c.252.945 1.24.98 1.24.98"/><path stroke="#73BE4A" stroke-width=".625" d="M10.73 6.36s.704.487.45 1.432c-.253.945-1.24.98-1.24.98"/><path fill="#FBCD17" fill-rule="evenodd" d="M10.002 7.967a.625.625 0 100-1.25.625.625 0 000 1.25z" clip-rule="evenodd"/></g></g></svg>
